; generated by PrusaSlicer 2.5.2+win64 on 2023-06-18 at 18:19:20 UTC


;
;
; 

; external perimeters extrusion width = 0.60mm
; perimeters extrusion width = 0.50mm
; infill extrusion width = 0.50mm
; solid infill extrusion width = 0.50mm
; top infill extrusion width = 0.45mm
; first layer extrusion width = 0.42mm

M73 P0 R24
M73 Q0 S24
M201 X1000 Y1000 Z200 E5000 ; sets maximum accelerations, mm/sec^2
M203 X200 Y200 Z12 E120 ; sets maximum feedrates, mm / sec
M204 P1250 R1250 T1250 ; sets acceleration (P, T) and retract acceleration (R), mm/sec^2
M205 X8.00 Y8.00 Z0.40 E4.50 ; sets the jerk limits, mm/sec
M205 S0 T0 ; sets the minimum extruding and travel feed rate, mm/sec
M107
;TYPE:Custom
M862.3 P "MK3S" ; printer model check
M862.1 P0.4 ; nozzle diameter check
M115 U3.12.2 ; tell printer latest fw version
G90 ; use absolute coordinates
M83 ; extruder relative mode
M104 S215 ; set extruder temp
M140 S60 ; set bed temp
M190 S60 ; wait for bed temp
M109 S215 ; wait for extruder temp
G28 W ; home all without mesh bed level
G80 ; mesh bed leveling

G1 Z0.2 F720
G1 Y-3 F1000 ; go outside print area
G92 E0
G1 X60 E9 F1000 ; intro line
G1 X100 E12.5 F1000 ; intro line

G92 E0
M221 S95

; Don't change E values below. Excessive value can damage the printer.

M907 E538 ; set extruder motor current
G21 ; set units to millimeters
G90 ; use absolute coordinates
M83 ; use relative distances for extrusion
M900 K0.05 ; Filament gcode LA 1.5
M900 K30 ; Filament gcode LA 1.0
M107
;LAYER_CHANGE
;Z:0.2
;HEIGHT:0.2
;BEFORE_LAYER_CHANGE
G92 E0.0
;0.2


G1 E-.8 F2100
G1 Z.4 F720
;AFTER_LAYER_CHANGE
;0.2
G1 X115.795 Y55.092 F10800
G1 Z.2 F720
G1 E.8 F2100
M204 S800
;TYPE:Skirt/Brim
;WIDTH:0.42
G1 F1200
G1 X116.591 Y53.984 E.04278
G1 X118.042 Y53.49 E.04808
G1 X131.958 Y53.49 E.43632
G1 X133.265 Y53.881 E.04278
G1 X134.205 Y55.092 E.04808
G1 X137.352 Y64.226 E.30289
G1 X137.482 Y65 E.02462
G1 X137.482 Y145 E2.50834
G1 X137.352 Y145.774 E.02462
M73 P0 R23
G1 X134.205 Y154.908 E.30289
G1 X133.409 Y156.016 E.04278
G1 X131.958 Y156.51 E.04808
G1 X118.042 Y156.51 E.43632
G1 X116.735 Y156.119 E.04278
G1 X115.795 Y154.908 E.04808
G1 X112.648 Y145.774 E.30289
G1 X112.518 Y145 E.02462
G1 X112.518 Y65 E2.50834
G1 X112.648 Y64.226 E.02462
M73 P1 R23
M73 Q1 S24
G1 X115.775 Y55.149 E.30101
M204 S1000
; printing object PolyVent_SPI_Controller-blank faceplate v9.stl id:0 copy 0
;WIPE_START
G1 F8640
G1 X116.591 Y53.984 E-.32835
G1 X118.042 Y53.49 E-.35405
G1 X118.378 Y53.49 E-.07761
;WIPE_END
G1 E-.04 F2100
G1 Z.6 F720
G1 X131.191 Y150.997 F10800
G1 Z.2 F720
G1 E.8 F2100
M204 S800
;TYPE:Perimeter
;WIDTH:0.419999
G1 F1200
G1 X131.171 Y151.08 E.00267
G1 X131.171 Y153.346 E.07106
G1 X118.829 Y153.346 E.38696
G1 X118.829 Y151.08 E.07106
G1 X118.767 Y150.821 E.00833
G1 X115.682 Y144.81 E.21186
G1 X115.682 Y101.003 E1.37352
G1 X115.981 Y101.254 E.01222
G1 X129.923 Y101.254 E.43717
G1 X130.096 Y101.227 E.00549
G1 X130.357 Y101.052 E.00983
G1 X130.453 Y100.888 E.00597
G1 X130.489 Y100.688 E.00635
G1 X130.489 Y85.992 E.46078
G1 X130.459 Y85.809 E.00583
G1 X130.376 Y85.653 E.00553
G1 X130.141 Y85.47 E.00933
G1 X129.923 Y85.427 E.00696
G1 X115.981 Y85.427 E.43717
G1 X115.682 Y85.725 E.01323
G1 X115.682 Y65.19 E.64386
G1 X118.767 Y59.179 E.21186
G1 X118.829 Y58.92 E.00833
G1 X118.829 Y56.654 E.07106
G1 X131.171 Y56.654 E.38696
G1 X131.171 Y58.92 E.07106
G1 X131.233 Y59.179 E.00833
G1 X134.318 Y65.19 E.21186
G1 X134.318 Y144.81 E2.49642
G1 X131.233 Y150.821 E.21186
M73 P2 R23
M73 Q2 S24
G1 X131.205 Y150.938 E.00377
M204 S1000
G1 X131.588 Y150.994 F10800
M204 S800
;TYPE:External perimeter
G1 F1200
G1 X131.548 Y151.08 E.00297
G1 X131.548 Y153.723 E.08289
G1 X118.452 Y153.723 E.41061
G1 X118.452 Y151.216 E.07862
G1 X118.431 Y150.994 E.00699
G1 X115.305 Y144.901 E.21471
G1 X115.305 Y101.552 E1.35916
;WIDTH:0.44748
G1 X115.319 Y101.12 E.01454
;WIDTH:0.47496
G1 X115.332 Y100.688 E.01553
G1 X115.332 Y85.992 E.52794
G1 X115.319 Y85.56 E.01553
;WIDTH:0.44748
M73 Q2 S23
G1 X115.305 Y85.128 E.01454
;WIDTH:0.419999
G1 X115.305 Y65.099 E.628
G1 X118.209 Y59.439 E.19946
G1 X118.452 Y58.92 E.01796
G1 X118.452 Y56.277 E.08289
G1 X131.548 Y56.277 E.41061
G1 X131.548 Y58.784 E.07862
G1 X131.569 Y59.006 E.00699
G1 X134.695 Y65.099 E.21471
G1 X134.695 Y66.305 E.0378
G1 X134.695 Y144.901 E2.46433
G1 X131.791 Y150.561 E.19946
M73 P3 R23
G1 X131.613 Y150.94 E.01311
M204 S1000
M73 Q3 S23
G1 X131.494 Y151.001 F10800
;WIPE_START
G1 F8640
G1 X131.548 Y151.08 E-.03571
G1 X131.548 Y153.723 E-.61039
G1 X131.055 Y153.723 E-.1139
;WIPE_END
G1 E-.04 F2100
G1 Z.6 F720
G1 X122.57 Y61.503 F10800
G1 Z.2 F720
G1 E.8 F2100
M204 S800
;TYPE:Perimeter
G1 F1200
G1 X122.516 Y61.059 E.01404
G1 X122.576 Y60.479 E.01827
G1 X122.685 Y60.097 E.01245
G1 X122.909 Y59.656 E.01552
G1 X123.217 Y59.269 E.01552
G1 X123.595 Y58.95 E.01552
G1 X124.03 Y58.712 E.01552
G1 X124.502 Y58.565 E.01552
G1 X124.994 Y58.515 E.01552
G1 X125.487 Y58.563 E.01552
G1 X125.96 Y58.708 E.01552
G1 X126.395 Y58.944 E.01552
G1 X126.775 Y59.261 E.01552
G1 X127.084 Y59.647 E.01552
G1 X127.311 Y60.087 E.01552
G1 X127.445 Y60.55 E.01512
G1 X127.484 Y60.941 E.01233
G1 X127.448 Y61.426 E.01524
G1 X127.315 Y61.903 E.01552
G1 X127.091 Y62.344 E.01552
G1 X126.783 Y62.731 E.01552
G1 X126.405 Y63.05 E.01551
G1 X125.97 Y63.288 E.01552
G1 X125.498 Y63.435 E.01552
G1 X125.006 Y63.485 E.01552
G1 X124.513 Y63.437 E.01552
G1 X124.04 Y63.292 E.01552
G1 X123.605 Y63.056 E.01552
G1 X123.225 Y62.739 E.01552
G1 X122.916 Y62.353 E.01552
G1 X122.689 Y61.913 E.01552
G1 X122.587 Y61.561 E.0115
M204 S1000
G1 X122.946 Y61.46 F10800
M204 S800
;TYPE:External perimeter
G1 F1200
G1 X122.892 Y61.078 E.0121
G1 X122.941 Y60.572 E.01594
G1 X123.024 Y60.261 E.0101
G1 X123.21 Y59.884 E.01317
G1 X123.467 Y59.552 E.01317
G1 X123.784 Y59.276 E.01317
G1 X124.15 Y59.07 E.01317
G1 X124.549 Y58.939 E.01317
G1 X124.966 Y58.891 E.01317
G1 X125.385 Y58.926 E.01317
G1 X125.788 Y59.043 E.01317
G1 X126.16 Y59.238 E.01317
G1 X126.486 Y59.503 E.01317
G1 X126.753 Y59.827 E.01317
G1 X126.951 Y60.198 E.01317
G1 X127.071 Y60.596 E.01303
G1 X127.108 Y60.922 E.01029
G1 X127.083 Y61.333 E.01291
G1 X126.976 Y61.739 E.01317
G1 X126.79 Y62.116 E.01317
G1 X126.533 Y62.448 E.01317
G1 X126.216 Y62.724 E.01317
G1 X125.85 Y62.93 E.01317
G1 X125.451 Y63.061 E.01317
G1 X125.034 Y63.109 E.01317
G1 X124.615 Y63.074 E.01317
G1 X124.212 Y62.957 E.01317
G1 X123.84 Y62.762 E.01317
G1 X123.514 Y62.497 E.01317
G1 X123.247 Y62.173 E.01317
G1 X123.049 Y61.802 E.01317
G1 X122.964 Y61.518 E.00931
M204 S1000
G1 X122.577 Y61.347 F10800
;WIPE_START
G1 F8640
G1 X122.892 Y61.078 E-.10281
G1 X122.941 Y60.572 E-.11736
G1 X123.024 Y60.261 E-.07437
G1 X123.21 Y59.884 E-.09699
G1 X123.467 Y59.552 E-.09698
G1 X123.784 Y59.276 E-.09698
G1 X124.15 Y59.07 E-.09699
G1 X124.469 Y58.966 E-.07751
;WIPE_END
G1 E-.04 F2100
G1 Z.6 F720
G1 X130.112 Y85.992 F10800
G1 Z.2 F720
G1 E.8 F2100
M204 S800
G1 F1200
G1 X130.112 Y100.688 E.46078
G1 X130.068 Y100.81 E.00405
G1 X129.981 Y100.868 E.00328
G1 X115.981 Y100.877 E.43898
;WIDTH:0.449117
G1 X115.873 Y100.801 E.00443
;WIDTH:0.478234
G1 X115.766 Y100.726 E.00475
G1 X115.765 Y100.688 E.00136
;WIDTH:0.47496
G1 X115.765 Y85.992 E.52794
G1 X115.873 Y85.898 E.00515
;WIDTH:0.44748
G1 X115.981 Y85.804 E.00482
;WIDTH:0.419999
G1 X129.923 Y85.804 E.43717
G1 X130.074 Y85.879 E.00529
G1 X130.093 Y85.935 E.00186
M204 S1000
G1 X130.498 Y86.096 F10800
;WIPE_START
G1 F8640
G1 X130.097 Y89.227 E-.76
;WIPE_END
G1 E-.04 F2100
G1 Z.6 F720
G1 X129.966 Y120.583 F10800
G1 Z.2 F720
G1 E.8 F2100
M204 S800
;TYPE:Perimeter
G1 F1200
G1 X119.481 Y120.587 E.32876
G1 X119.214 Y120.52 E.0086
G1 X119.071 Y120.411 E.00565
G1 X118.923 Y120.119 E.01027
G1 X118.915 Y120.021 E.00308
G1 X118.915 Y106.107 E.43626
G1 X118.955 Y105.898 E.00669
G1 X119.06 Y105.729 E.00624
G1 X119.331 Y105.562 E.00997
G1 X119.481 Y105.542 E.00473
G1 X129.923 Y105.542 E.32743
G1 X130.229 Y105.631 E.00999
G1 X130.357 Y105.744 E.00533
G1 X130.453 Y105.908 E.00597
G1 X130.489 Y106.107 E.00635
G1 X130.489 Y120.021 E.43626
G1 X130.459 Y120.205 E.00583
G1 X130.263 Y120.474 E.01043
G1 X130.026 Y120.578 E.00812
M204 S1000
G1 X129.923 Y120.21 F10800
M204 S800
;TYPE:External perimeter
G1 F1200
G1 X119.481 Y120.21 E.32743
G1 X119.344 Y120.151 E.00466
G1 X119.292 Y120.021 E.00439
G1 X119.292 Y106.107 E.43626
G1 X119.34 Y105.981 E.00424
G1 X119.431 Y105.926 E.00332
G1 X119.481 Y105.919 E.00158
G1 X129.923 Y105.919 E.32743
G1 X130.068 Y105.986 E.00499
G1 X130.112 Y106.107 E.00405
G1 X130.112 Y120.021 E.43626
G1 X130.037 Y120.172 E.00529
G1 X129.98 Y120.191 E.00186
M204 S1000
G1 X129.82 Y120.596 F10800
;WIPE_START
G1 F8640
G1 X126.689 Y120.197 E-.76
;WIPE_END
G1 E-.04 F2100
G1 Z.6 F720
G1 X127.43 Y148.497 F10800
G1 Z.2 F720
G1 E.8 F2100
M204 S800
;TYPE:Perimeter
G1 F1200
G1 X127.484 Y148.941 E.01404
G1 X127.448 Y149.426 E.01524
G1 X127.315 Y149.903 E.01552
G1 X127.091 Y150.344 E.01552
G1 X126.783 Y150.731 E.01552
G1 X126.405 Y151.05 E.01552
G1 X125.97 Y151.288 E.01552
G1 X125.498 Y151.435 E.01552
G1 X125.006 Y151.485 E.01552
G1 X124.513 Y151.437 E.01552
G1 X124.04 Y151.292 E.01552
G1 X123.605 Y151.056 E.01552
G1 X123.225 Y150.739 E.01552
G1 X122.916 Y150.353 E.01552
G1 X122.765 Y150.077 E.00984
G1 X122.576 Y149.548 E.01764
G1 X122.516 Y149.059 E.01545
G1 X122.552 Y148.574 E.01524
G1 X122.685 Y148.097 E.01552
G1 X122.909 Y147.656 E.01552
G1 X123.217 Y147.269 E.01552
G1 X123.595 Y146.95 E.01552
G1 X124.03 Y146.712 E.01552
G1 X124.502 Y146.565 E.01552
G1 X124.994 Y146.515 E.01552
G1 X125.487 Y146.563 E.01552
G1 X125.96 Y146.708 E.01552
G1 X126.395 Y146.944 E.01552
G1 X126.775 Y147.261 E.01552
G1 X127.084 Y147.647 E.01552
G1 X127.311 Y148.087 E.01552
G1 X127.413 Y148.439 E.01151
M204 S1000
G1 X127.059 Y148.558 F10800
M204 S800
;TYPE:External perimeter
G1 F1200
G1 X127.108 Y148.922 E.01151
G1 X127.083 Y149.333 E.01291
G1 X126.976 Y149.739 E.01317
G1 X126.79 Y150.116 E.01317
G1 X126.533 Y150.448 E.01317
G1 X126.216 Y150.724 E.01317
G1 X125.85 Y150.93 E.01317
G1 X125.451 Y151.061 E.01317
G1 X125.034 Y151.109 E.01317
G1 X124.615 Y151.074 E.01317
G1 X124.212 Y150.957 E.01317
G1 X123.84 Y150.762 E.01317
G1 X123.514 Y150.497 E.01317
G1 X123.247 Y150.173 E.01317
G1 X123.097 Y149.897 E.00984
G1 X122.932 Y149.418 E.01588
G1 X122.892 Y149.078 E.01074
G1 X122.917 Y148.667 E.01291
G1 X123.024 Y148.261 E.01317
G1 X123.21 Y147.884 E.01317
G1 X123.467 Y147.552 E.01317
G1 X123.784 Y147.276 E.01317
G1 X124.15 Y147.07 E.01317
G1 X124.549 Y146.939 E.01317
G1 X124.966 Y146.891 E.01317
G1 X125.385 Y146.926 E.01317
G1 X125.788 Y147.043 E.01317
G1 X126.16 Y147.238 E.01317
G1 X126.486 Y147.503 E.01317
G1 X126.753 Y147.827 E.01317
G1 X126.951 Y148.198 E.01317
G1 X127.042 Y148.501 E.00991
M204 S1000
G1 X127.409 Y148.668 F10800
;WIPE_START
G1 F8640
G1 X127.108 Y148.922 E-.09844
G1 X127.083 Y149.333 E-.09506
G1 X126.976 Y149.739 E-.09699
G1 X126.79 Y150.116 E-.09699
G1 X126.533 Y150.448 E-.09699
G1 X126.216 Y150.724 E-.09699
G1 X125.85 Y150.93 E-.09698
M73 Q4 S23
G1 X125.515 Y151.04 E-.08156
;WIPE_END
G1 E-.04 F2100
M73 P4 R23
G1 Z.6 F720
G1 X130.238 Y56.824 F10800
G1 Z.2 F720
G1 E.8 F2100
M204 S800
;TYPE:Solid infill
;WIDTH:0.420614
G1 F1200
G1 X130.832 Y57.418 E.02638
G1 X130.832 Y57.952 E.01678
G1 X129.873 Y56.993 E.04257
G1 X129.339 Y56.993 E.01677
G1 X130.832 Y58.486 E.0663
G1 X130.832 Y58.955 E.01473
G1 X130.848 Y59.037 E.00262
G1 X128.805 Y56.993 E.09076
G1 X128.271 Y56.993 E.01677
G1 X131.277 Y59.999 E.1335
G1 X131.838 Y61.095 E.03866
G1 X127.737 Y56.993 E.18216
G1 X127.202 Y56.993 E.01677
G1 X132.399 Y62.19 E.23081
G1 X132.961 Y63.286 E.03866
G1 X126.668 Y56.993 E.27947
G1 X126.134 Y56.993 E.01677
G1 X133.522 Y64.381 E.32812
G1 X133.979 Y65.272 E.03144
G1 X133.979 Y65.372 E.00313
G1 X125.6 Y56.993 E.37212
G1 X125.066 Y56.993 E.01677
G1 X133.979 Y65.906 E.39585
G1 X133.979 Y66.44 E.01677
G1 X127.681 Y60.143 E.2797
G1 X127.604 Y59.899 E.00802
G1 X127.289 Y59.344 E.02004
G1 X126.915 Y58.923 E.01769
G1 X126.465 Y58.585 E.01767
G1 X125.958 Y58.343 E.01766
G1 X125.855 Y58.317 E.00331
G1 X124.532 Y56.993 E.05879
G1 X123.998 Y56.993 E.01677
G1 X125.2 Y58.196 E.0534
G1 X124.85 Y58.179 E.01099
G1 X124.676 Y58.206 E.00553
G1 X123.463 Y56.993 E.05387
G1 X122.929 Y56.993 E.01677
G1 X124.226 Y58.29 E.05759
G1 X123.835 Y58.434 E.01307
G1 X122.395 Y56.993 E.06397
G1 X121.861 Y56.993 E.01677
G1 X123.494 Y58.626 E.07254
G1 X123.287 Y58.754 E.00763
G1 X123.184 Y58.85 E.00444
G1 X121.327 Y56.993 E.08248
G1 X120.793 Y56.993 E.01677
G1 X122.908 Y59.108 E.09393
G1 X122.678 Y59.413 E.01198
G1 X120.259 Y56.993 E.10745
G1 X119.724 Y56.993 E.01677
G1 X122.478 Y59.747 E.12231
G1 X122.343 Y60.034 E.00998
G1 X122.321 Y60.124 E.0029
G1 X119.19 Y56.993 E.13906
G1 X119.169 Y56.993 E.00068
G1 X119.169 Y57.506 E.01609
G1 X122.22 Y60.557 E.13551
G1 X122.196 Y60.655 E.00318
G1 X122.185 Y61.056 E.01259
G1 X119.169 Y58.04 E.13396
G1 X119.169 Y58.574 E.01677
G1 X122.528 Y61.933 E.1492
M204 S1000
;WIPE_START
G1 F8640
G1 X120.2 Y59.606 E-.76
;WIPE_END
G1 E-.04 F2100
G1 Z.6 F720
G1 X127.621 Y60.616 F10800
G1 Z.2 F720
G1 E.8 F2100
M204 S800
G1 F1200
G1 X133.979 Y66.974 E.28238
G1 X133.979 Y67.508 E.01677
G1 X127.804 Y61.334 E.27424
G1 X127.707 Y61.771 E.01407
G1 X133.979 Y68.043 E.27853
G1 X133.979 Y68.577 E.01677
G1 X127.561 Y62.159 E.28504
G1 X127.451 Y62.405 E.00846
G1 X127.376 Y62.509 E.00401
G1 X133.979 Y69.111 E.29323
G1 X133.979 Y69.645 E.01677
G1 X127.154 Y62.82 E.30311
G1 X126.885 Y63.085 E.01186
G1 X133.979 Y70.179 E.31506
G1 X133.979 Y70.713 E.01677
G1 X126.587 Y63.322 E.32828
G1 X126.254 Y63.523 E.01222
G1 X133.979 Y71.247 E.34309
G1 X133.979 Y71.781 E.01677
G1 X125.872 Y63.675 E.36005
G1 X125.626 Y63.757 E.00813
G1 X125.444 Y63.781 E.00579
G1 X133.979 Y72.316 E.37907
G1 X133.979 Y72.85 E.01677
M73 P4 R22
G1 X124.944 Y63.815 E.40128
G1 X124.513 Y63.785 E.01357
M73 P5 R22
M73 Q5 S23
G1 X124.328 Y63.733 E.00602
G1 X133.979 Y73.384 E.42862
G1 X133.979 Y73.918 E.01677
G1 X119.145 Y59.084 E.65883
G1 X119.126 Y59.199 E.00366
G1 X118.991 Y59.465 E.00935
G1 X133.979 Y74.452 E.66566
G1 X133.979 Y74.986 E.01677
G1 X118.81 Y59.818 E.67369
G1 X118.629 Y60.171 E.01247
G1 X133.979 Y75.52 E.68171
G1 X133.979 Y76.055 E.01677
G1 X118.449 Y60.525 E.68974
G1 X118.268 Y60.878 E.01247
G1 X133.979 Y76.589 E.69777
G1 X133.979 Y77.123 E.01677
G1 X118.087 Y61.232 E.70579
G1 X117.907 Y61.585 E.01247
G1 X133.979 Y77.657 E.71382
G1 X133.979 Y78.191 E.01677
G1 X117.726 Y61.939 E.72184
G1 X117.545 Y62.292 E.01247
G1 X133.979 Y78.725 E.72987
G1 X133.979 Y79.259 E.01677
G1 X117.364 Y62.645 E.7379
G1 X117.184 Y62.999 E.01247
G1 X133.979 Y79.794 E.74592
G1 X133.979 Y80.328 E.01677
M73 P6 R22
M73 Q6 S23
G1 X117.003 Y63.352 E.75395
G1 X116.822 Y63.706 E.01247
G1 X133.979 Y80.862 E.76198
G1 X133.979 Y81.396 E.01677
G1 X116.642 Y64.059 E.77
G1 X116.461 Y64.413 E.01247
G1 X133.979 Y81.93 E.77803
G1 X133.979 Y82.464 E.01677
G1 X116.28 Y64.766 E.78605
G1 X116.099 Y65.119 E.01247
G1 X133.979 Y82.998 E.79408
G1 X133.979 Y83.533 E.01677
G1 X116.021 Y65.575 E.79755
G1 X116.021 Y66.11 E.01677
M73 Q6 S22
G1 X133.979 Y84.067 E.79755
G1 X133.979 Y84.601 E.01677
G1 X116.021 Y66.644 E.79755
G1 X116.021 Y67.178 E.01677
G1 X133.979 Y85.135 E.79755
G1 X133.979 Y85.669 E.01677
G1 X116.021 Y67.712 E.79755
G1 X116.021 Y68.246 E.01677
M73 P7 R22
G1 X133.979 Y86.203 E.79755
G1 X133.979 Y86.737 E.01677
M73 Q7 S22
G1 X116.021 Y68.78 E.79755
G1 X116.021 Y69.314 E.01677
G1 X133.979 Y87.272 E.79755
G1 X133.979 Y87.806 E.01677
G1 X116.021 Y69.849 E.79755
G1 X116.021 Y70.383 E.01677
G1 X133.979 Y88.34 E.79755
G1 X133.979 Y88.874 E.01677
G1 X116.021 Y70.917 E.79755
G1 X116.021 Y71.451 E.01677
G1 X129.658 Y85.087 E.60564
G1 X129.124 Y85.087 E.01677
G1 X116.021 Y71.985 E.58192
G1 X116.021 Y72.519 E.01677
G1 X128.59 Y85.087 E.5582
G1 X128.055 Y85.087 E.01677
G1 X116.021 Y73.053 E.53447
G1 X116.021 Y73.588 E.01677
G1 X127.521 Y85.087 E.51075
G1 X126.987 Y85.087 E.01677
G1 X116.021 Y74.122 E.48703
G1 X116.021 Y74.656 E.01677
G1 X126.453 Y85.087 E.4633
